X:53
T:Waiting for the Federals (also see Seneca Square Dance)
R:March
C:Trad.
O:USA
Z:Paul Hardy's Session Tunebook 2015 (see www.paulhardy.net). Creative Commons cc by-nc-sa licenced.
M:2/2
L:1/4
Q:1/4=180
K:G
A|"G"B2 B>B|dB2G|"Em"B2 B>G|"C"AG2 A|"G"B2 B>B|dB2 A/B/|"D"c/B/A/G/ F/D/E/F/|1"G"G2G:|2"G"G3d|
|:"G"g2 g>e|d B2 d|"Em"g2 g>a|"C"be2f|"G"g2 g>e|d B2 A/B/|"Em"c/B/A/G/ F/D/E/F/|1"G"G2Gd:|2"G"G3||
